X: 1
T: Cordal, The
M: 6/8
L: 1/8
R: jig
K: Dmaj
|:BAF ~E3|FEF DFA|BAF EFA|B2A Bcd|
|BAF ~E3|FEF DFA|def edc|B2A Bcd:|
|:d2 e fed|~c3 ecA|dcd fed|f/f/fe fga|
|~d3 fed|c2 d ecA|dcB cBA|B2A Bcd:|
